X: 41006
T: Trip To Galway, The
R: jig
M: 6/8
K: Dminor
B|:AFD DED|~c3 AGF|EDC C=B,C|E2 F GAB|
AFD DED|~c3 cde|fed edc|1 Add dcB:|2 Add d2 e||
|:fed afd|fed a2 f|ecA Gce|ece gfe|
fed afd|fed a2 f|edc GcB|1 Add d2 e:|2 Add dcB||

